X: 5
T: Dan Collins' Father's
R: jig
M: 6/8
L: 1/8
K: Dmaj
|:d2A BAB|def a3|aba f2e|dBB gfe|
d2A BAB|def a3|aba f2e|edc d2e:|
|:faa faa|fab afe|fab afd|e3 gfe|
d2A BAB|def a3|aba f2e| edc d3:|


Tune 2217	Setting 2217

